app/dist/common/images/east-japan-railway.svg

<svg height="18" width="18" xmlns="http://www.w3.org/2000/svg"><path d="m0 9a9 9 0 1 1 18 0 9 9 0 0 1 -18 0z" fill="#188847"/><path d="m3 10.17v-2.17h1.58v1.86c0 .61 1.05.61 1.58.61s1.58 0 1.58-.6v-3.87h5.68c1.2 0 1.58 1.05 1.58 2.05s-.37 2.06-1.58 2.06h-.22l1.54 1.89h-2.04l-2.75-3.47h3.16c.28 0 .31-.26.31-.48 0-.21-.03-.47-.31-.47h-3.81v2.59c0 1.79-1.8 1.83-3.15 1.83s-3.15-.04-3.15-1.83z" fill="#fff"/></svg>

<!-- by TradingView --><svg xmlns="http://www.w3.org/2000/svg" width="18" height="18"><path d="M0 9a9 9 0 1118 0A9 9 0 010 9z" fill="#188847"/><path d="M3 10.17V8h1.58v1.86c0 .61 1.05.61 1.58.61s1.58 0 1.58-.6V6h5.68C14.62 6 15 7.05 15 8.05c0 1-.37 2.06-1.58 2.06h-.22L14.74 12H12.7L9.95 8.53h3.16c.28 0 .31-.26.31-.48 0-.21-.03-.47-.31-.47H9.3v2.59C9.3 11.96 7.5 12 6.15 12 4.8 12 3 11.96 3 10.17z" fill="#fff"/></svg>
